X:1
T:Title
%%score { 1 | 2 }
L:1/8
M:4/4
K:Eb
V:1 treble nm="Grand Piano"
V:2 bass 
V:1
 z4 z2 z[Q:1/4=100] [EG] | [GB]2 [Ac][GB] G3 G | GGAG E4 | [DF]2 B,B, E E3 | %4
[M:7/8] EE[DF] [DF] [EG]3 |[M:1/8] [EG] |[M:4/4] [GB]2 [Ac][GB] G3 G | GGAG E4 | %8
 [DF]2 B,B, [EG]<[EG] [DF]2 | E6 z2 | C2 [CE][CE] B,<B, E2 | G6 z2 | G2 AG G<F E2 | %13
[M:7/8] [DB]-[DB]-[DB]- [DB]3 z |[M:1/8] [EG] |[M:4/4] [GB]2 [Ac][GB] G3 G | GGAG E4 | %17
 [DF]2 B,B, [EG]<[EG] [DF]2 |[M:8/4] [B,E]8 z8 |] %19
V:2
 z4 z2 z [E,B,] | [E,E]2 [E,E][E,E] [E,B,E]3 [E,B,E] | [E,B,E][E,B,E][E,CE][E,B,E] [E,G,]4 | %3
 [B,,A,]2 [B,,D,][B,,D,] [B,,G,B,] [B,,G,B,]3 |[M:7/8] [C,G,][C,G,][B,,B,] [B,,B,] [E,B,]3 | %5
[M:1/8] [E,B,] |[M:4/4] [E,E]2 [E,E][E,E] [E,B,E]3 [E,B,E] | [E,B,E][E,B,E][E,CE][E,B,E] [E,G,]4 | %8
 [B,,A,]2 [B,,D,][B,,D,] [B,,B,]<[B,,B,] [B,,A,]2 | [E,G,B,]6 z2 | %10
 [A,,A,]2 [A,,A,][A,,A,] [E,G,]<[E,G,] [E,G,B,]2 | [E,B,E]6 z2 | %12
 [E,B,E]2 [E,CE][E,B,E] [E,B,E]<[E,A,E] [E,G,]2 |[M:7/8] [B,,F,]-[B,,F,]-[B,,F,]- [B,,F,]3 z | %14
[M:1/8] [E,B,] |[M:4/4] [E,E]2 [E,E][E,E] [E,B,E]3 [E,B,E] | [E,B,E][E,B,E][E,CE][E,B,E] [E,G,]4 | %17
 [B,,A,]2 [B,,D,][B,,D,] [B,,B,]<[B,,B,] [B,,A,]2 |[M:8/4] [E,G,]8 z8 |] %19

